!!!!SEGMENT: pl-wtm--iii-41-944-1_mlynarski-emil--trois-morceaux-pour-piano-op-5-no-1-krakowiak.krn
!!!cenid: 18xx:4269
!!!COM: Młynarski, Emil
!!!COM-rismID: pe50043899
!!!CDT: 1870/07/18-1935/04/05
!!!CNT: Polish
!!!GTL: Trois Morceaux pour piano op. 5
!!!OTL: No. 1 Krakowiak
!!!PDT: 1894
!!!AGN:
!!!SMS-siglum: PL-Wtm
!!!SMS-shelfmark: III.41.944/1
!!!SMS-shelfwork: G
!!!SMS-variant:
!!!SMS-altvar:
!!!NIFC-rismSourceID: 1001152184
!!!NIFC-rismChildID: 1001152184
!!!NIFC-islandoraID: pl-wtm:22901
!!!URL-pdf-islandora: https://repozytorium.nifc.pl/islandora/object/pl-wtm:22901/datastream/PDF/view
!!!URL-scan: https://polish.musicsources.pl/pl/lokalizacje/galeria/druki-muzyczne/17785/1
!!!ONB-nifc:
!!!OMD: Allegretto.
!!!AIN: 1 piano
!!!key:
**kern	**kern	**dynam
*part1	*part1	*part1
*staff2	*staff1	*
*	*I"Piano.	*
*	*I'pf	*
*	*Ipiano	*
*	*ICklav	*
*	*IGsolo	*
*clefF4	*clefG2	*
*k[f#]	*k[f#]	*
*G:	*G:	*
*M2/4	*M2/4	*
!!LO:TX:t=P:problem:TUP:klamra łukowa i 3:global
=1	=1	=1
4.GG:\ 4.D: 4.B:	8d'/L	p
.	24e/L	.
.	24g/	.
.	24b/JJ	.
.	[4d^>/	.
8GG:\ 8D: 8B:	.	.
=2	=2	=2
4.GG:\ 4.D: 4.B:	8d'/L]	.
.	24e/L	.
.	24g/	.
.	24b/JJ	.
.	[4d^>/	.
8GG:\ 8D: 8B:	.	.
=3	=3	=3
*	*^	*
8GG'/ 8D	(8.d/L]	(2c\	.
(4D^\ 4d	.	.	.
.	16f#/Jk	.	.
.	8a/L	.	.
8D\)	8cc/J	.	.
=4	=4	=4	=4
8GG'/ 8D	8b/L	[4B\)	.
(4D^\ 4d	[8g/J)	.	.
.	8g/]	8B\]	.
8D\)	8r	8r	.
*	*v	*v	*
=5	=5	=5
4.GG:\ 4.D: 4.B:	8d'/L	.
.	24e/L	.
.	24g/	.
.	24b/JJ	.
.	[4d^>/	.
8GG:\ 8D: 8B:	.	.
!!LO:LB:g=original
=6	=6	=6
4.GG:\ 4.D: 4.B:	8d'/L]	.
.	24e/L	.
.	24g/	.
.	24b/JJ	.
.	[4d^>/	.
8GG:\ 8D: 8B:	.	.
=7	=7	=7
*	*^	*
8GG'/ 8D	8.d/L]	(2c\	.
(4D^\ 4d	.	.	.
.	(16f#/Jk	.	.
.	8a/L	.	.
8D\)	8cc/J	.	.
*	*v	*v	*
=8	=8	=8
8GG'/ 8D	8B/)) 8g	.
(4D^\ 4d	4B^>/ 4g	.
8D\)	8r	.
=9	=9	=9
8AAA'/ 8AA	8c#X'/L	mf
4G^\ 4B	24e/L	<
.	24g/	.
.	24b/JJ	.
.	[4e^>/	.
8G\ 8B	.	.
=10	=10	=10
8A'\ 8c#X	8e'/L]	.
4A^\ 4c#	24g/L	.
.	24b/	.
.	24ee/JJ	.
.	[4g^>/	.
8A\ 8c#	.	.
!!LO:LB:g=original
=11	=11	=11
8B'\ 8d	8g'\L]	.
!	!LO:TUP:a	!
4B^\ 4d	24dd\L	.
.	24gg\	.
.	24g\JJ	.
.	4dd^\	.
8B'\ 8d	.	.
=12	=12	=12
8AAA'/ 8AA	8r	f
*clefG2	*	*
4A^>/ 4g	(16cc#X\LL 16ee#X	.
.	16a\JJ)	.
.	8cc#'\L 8ee#	.
8A'/ 8g	8cc#'\J 8ee#	.
=13	=13	=13
*clefF4	*	*
!LO:TX:t=P:problem:brak klucza F4	!	!
8DDD'/ 8DD	8f#\L 8ccn 8een 8ff#	p
*clefG2	*	*
!	!LO:TUP:a	!
4cn^>/ 4e	24a\L	<
.	24cc\	.
.	24ee\JJ	<
.	[4a^>/	.
8c/ 8e	.	.
=14	=14	=14
8d'/ 8f#	8a'\L]	.
!	!LO:TUP:a	!
4d^>/ 4f#	24cc\L	.
.	24ee\	.
.	24aa\JJ	.
.	[4cc^\	.
8d/ 8f#	.	.
=15	=15	=15
8e'/ 8g	8cc'\L]	.
!	!LO:TUP:a	!
4e^>/ 4g	24gg\L	.
.	24ccc\	.
.	24cc\JJ	.
.	4gg^\	[ mf
8e/ 8g	.	.
*clefF4	*	*
=16	=16	=16
8DD'/L 8D	8r	p
*clefG2	*	*
!	!	!LO:HP:t=e dim.
(8cc/	(16eee\LL	>
.	16ee\J	.
8d/	8eee\)	.
8g#X/J)	8dd'\J 8ee#X 8bb	.
!!LO:LB:g=original
=17	=17	=17
8d'\L 8a	8dd'\L 8ff# 8ccc	.
*clefF4	*	*
(8c\	(16een\L	.
.	16en\J	.
8D\	8ee\)	.
8G#X\J)	8d'\J 8e#X 8b	.
=18	=18	=18
8D'/L 8A	8d'\L 8f# 8cc	.
*	*clefF4	*
(8C/	(16en\L	.
.	16En\J	.
8DD/	8e\)	.
8GG#X/J)	8D'\J 8E#X 8B	.
=19	=19	=19
8DD'/ 8AA	8D'\ 8F# 8c	.
8r	8r	.
(8qC#X/	.	.
*	*clefG2	*
.	(8qc#X/	.
8D'\)	8d'/)	pp
8r	8r	.
=20	=20	=20
(8qc#X/	(8qcc#X/	.
8d'\)	8dd'\)	.
8r	8r	.
(8qC#X/	(8qc#X/	.
8D'\)	[4d^>/)	.
8r	.	.
=21	=21	=21
4.GG:\ 4.D: 4.B:	8d'/L]	p
.	24e/L	.
.	24g/	.
.	24b/JJ	.
.	[4d^>/	.
8GG:\ 8D: 8B:	.	.
=22	=22	=22
4.GG:\ 4.D: 4.B:	8d'/L]	.
.	24e/L	.
.	24g/	.
.	24b/JJ	.
.	[4d^>/	.
8GG:\ 8D: 8B:	.	.
!!LO:LB:g=original
=23	=23	=23
*	*^	*
8GG'/ 8D	8.d/L]	(2c\	.
(4D^\ 4d	.	.	.
.	16f#/Jk	.	.
.	8a/L	.	.
8D\)	8cc/J	.	.
=24	=24	=24	=24
8GG'/ 8D	8b/L	[4B\)	.
(4D^\ 4d	[8g/J	.	.
.	8g/]	8B\]	.
8D\)	8r	8r	.
*	*v	*v	*
=25	=25	=25
4.GG:^>\ 4.D: 4.B:	8d'/L	.
.	24e/L	.
.	24g/	.
.	24b/JJ	.
.	[4d^>/	.
8GG:\ 8D: 8B:	.	.
=26	=26	=26
4.GG:\ 4.D: 4.B:	8d'/L]	.
.	24e/L	.
.	24g/	.
.	24b/JJ	.
.	[4d^>/	.
8GG:\ 8D: 8B:	.	.
=27	=27	=27
*	*^	*
8GG'/ 8D	(8.d/L]	(2c\	.
(4D^\ 4d	.	.	.
.	16f#/Jk	.	.
.	8a/L	.	.
8D\)	8cc/J	.	.
*	*v	*v	*
=28	=28	=28
8GG'/ 8D	8B'/)) 8g	.
(4D^\ 4d	4B^>/ 4g	.
8GG'/)	8r	.
!!LO:PB:g=original
=29||	=29||	=29||
*k[b-e-a-]	*k[b-e-a-]	*
*^	*^	*
!	!	!LO:TX:a:i:t=tranquillo	!	!
4B-/	[2E-\	8g/L	[4d-X\	.
.	.	(24g/L	.	.
.	.	24a-/	.	.
.	.	24b-/JJ	.	.
8c/L	.	4a-/	8d-\L]	.
8c/J	.	.	8e-\J	.
=30	=30	=30	=30	=30
4B-/	2E-\_	8g'/L)	[4d\	.
.	.	(24g/L	.	.
.	.	24a-/	.	.
.	.	24g/JJ	.	.
8A-/L	.	4f/	8d\L]	.
8A-/J	.	.	[8d\J	.
=31	=31	=31	=31	=31
8G/L	2E-\_	8e-/L)	8d\L]	.
8d-X/J	.	(24e-/L	8e-\J	.
.	.	24f/	.	.
.	.	24g/JJ	.	.
[<8c/L	.	8a-'/L	4e-\	.
24c/L]	.	24a-/L	.	.
24B-/	.	24b-/	.	.
24A-/JJ	.	24cc/JJ	.	.
=32	=32	=32	=32	=32
!	!	!	!	!LO:HP:t=poco cresc.
8An/L	2E-\]	8cc'/L	2f\	<
!	!	!LO:TUP:b	!	!
8A/	.	24cc/L	.	.
.	.	24ff/	.	.
.	.	24cc/JJ	.	.
8B-/	.	8dd-X/L	.	.
[8d-X/J	.	8b-/J)	.	.
=33	=33	=33	=33	=33
4d-/]	[2E-\	(8ff'/L	[4g\	p
.	.	24ff/L	.	.
.	.	24gg/	.	.
.	.	24ff/JJ	.	.
8c/L	.	4ee-/)	8g\L]	.
8c/J	.	.	8a-\J	.
!!LO:LB:g=original
=34	=34	=34	=34	=34
4d-X/	2E-\_	(8ff/L	[4g\	.
.	.	24ff/L	.	.
.	.	24aa-/	.	.
.	.	24ff/JJ	.	.
8c/L	.	4ee-/)	8g\L]	.
8c/J	.	.	8a-\J	.
=35	=35	=35	=35	=35
8B-/L	2E-\_	(24dd-X/LL	4g\	.
.	.	24ee-/	.	.
.	.	24dd-/J	.	.
8d-X/	.	8ff'/J)	.	.
8c/	.	(24ee-/LL	4a-\	.
.	.	24ff/	.	.
.	.	24ee-/J	.	.
8A-/J	.	8cc'/J)	.	.
=36	=36	=36	=36	=36
!	!	!	!	!LO:HP:t=dim.
8F/L	4E-\]	(24a-/LL	4d-X\	>
.	.	24b-/	.	.
.	.	24a-/J	.	.
8G/J	.	8b-'/J	.	.
4A-/	8A-\L	8cc/L	8c\L	.
.	8AA-\J	8cc-X/J)	[8c-X\J	.
*v	*v	*	*	*
=37	=37	=37	=37
(4D-X\	(8e-'/L	4c-\]	mp
.	24e-/L	.	.
.	24f/	.	.
.	24g-X/JJ	.	.
8d-X\L)	4a-/)	8c-X\L 8f	.
8d-\J	.	8c-\J 8f	.
=38	=38	=38	=38
*^	*	*	*
4D-X/	[2D-\	8g-X'/L	4c-X\ 4e-	.
.	.	(24g-/L	.	.
.	.	24a-/	.	.
.	.	24g-/JJ	.	.
8A-/L	.	8f/L	8c-\L	.
8G-X/J	.	8e-/J	8c-\J	.
!!LO:LB:g=original
=39	=39	=39	=39	=39
8F/L	2D-X\_	8d-X'/L)	8c-X\L	.
8A-/J	.	(24d-/L	8d-\J	.
.	.	24e-/	.	.
.	.	24f/JJ	.	.
[<8B-/L	.	8g-X'/L	4d-\	.
24B-/L]	.	24g-/L	.	.
24A-/	.	24a-/	.	.
24G-X/JJ	.	[24b-/JJ	.	.
=40	=40	=40	=40	=40
!	!	!	!	!LO:HP:t=poco cresc.
8Gn/L	2D-\]	8b-'/L]	2e-\	<
8G/	.	24b-/L	.	.
.	.	24ee-/	.	.
.	.	24b-/JJ	.	.
8A-/	.	8cc-X/L	.	.
[8c-X/J	.	8a-/J	.	.
=41	=41	=41	=41	=41
4c-/]	[2D-X\	8ee-'/L)	[4f\	p
.	.	(>24ee-/L	.	.
.	.	24ff/	.	.
.	.	24ee-/JJ	.	.
8B-/L	.	4dd-X/)	8f\L]	.
8B-/J	.	.	8g-X\J	.
=42	=42	=42	=42	=42
4c-X/	2D-\]	(8ee-'/L	[4f\	.
.	.	24ee-/L	.	.
.	.	24gg-X/	.	.
.	.	24ee-/JJ	.	.
8B-/L	.	4dd-X/)	8f\L]	.
8B-/J	.	.	8g-X\J	.
!!LO:LB:g=original
=43	=43	=43	=43	=43
4cn/	[2Dn\	(8een'/L	[4f#X\	.
.	.	24ee/L	.	.
.	.	24ff#X/	.	.
.	.	24ee/JJ	.	.
8Bn/L	.	4ddn/)	8f#\L]	.
8B/J	.	.	8gn\J	.
=44	=44	=44	=44	=44
4c/	2D\]	(8een/L	[4f#X\	.
.	.	24ee/L	.	.
.	.	24ggn/	.	.
.	.	24ee/JJ	.	.
8Bn/L	.	4dd/)	8f#\L]	.
8B/J	.	.	8gn\J	.
*v	*v	*	*	*
*	*v	*v	*
=45	=45	=45
*ped	*	*
8D':\ 8An: 8en:	8g':\ 8cc: 8een: 8aan:	mf
*	*8va	*
!LO:TX:a:t=m.g.	!	!
8eeny>\L 8gg>	(24aaa/LL	pp
.	24cccc/	.
.	24eeeen/J	.
8dd>\ 8ff#X>	8bbbn/J)	.
8cc>\J 8ee>	(24fff/LL	.
.	24aaa/	.
.	24cccc/J	.
=46	=46	=46
8bn>\L 8dd>	8ggg/J)	.
8an>\ 8cc>	(24ddd/LL	.
.	24fff#X/	.
.	24aaan/J	.
8g>\ 8cc>	8eeen/J)	.
8f#X>\J 8cc>	(24ddd/LL	.
.	24eee/	.
.	24aaa/J	.
!!LO:LB:g=original
=47	=47	=47
8g>\L 8cc>	8eeen/J)	.
*	*X8va	*
8ee->\ 8gg>	(24aan/LL	.
.	24ccc/	.
.	24eeen/J	.
8dd>\ 8ff#X>	8bbn/J)	.
8cc>\J 8ee->	(24ff/LL	.
.	24aa/	.
.	24ccc/J	.
=48	=48	=48
8bn>\L 8dd>	8gg/J)	.
8an>\ 8cc>	(24dd/LL	.
.	24ff#X/	.
.	24aan/J	.
8g>\ 8cc>	8een/J)	.
8f#X>\J 8cc>	(24dd/LL	.
.	24ee/	.
.	24aa/J	.
=49	=49	=49
8g>\L 8cc>	8een/J)	.
8en>\ 8gn>	(24a-/LL	.
.	24cc/	.
.	24ee/J	.
8d>\ 8f#X>	8b-/J)	.
8c>\J 8e>	(24f/LL	.
.	24a-/	.
.	24cc/J	.
=50	=50	=50
8Bn>\L 8d>	8g/J)	.
8An\ 8c	(24d/LL	.
.	24f#X/	.
.	24an/J	.
8G\ 8c	8en/J)	.
8F#X\J 8c	24d/LL	.
.	24e/	.
.	24a/JJ	.
!!LO:PB:g=original
=51	=51	=51
4.G\ 4.c	([4en/	.
.	16e/LL]	.
.	16f#X/	.
!	!LO:TX:b:i:t=rit.	!
8r	16e/	.
.	16an/JJ)	.
=52	=52	=52
*	*^	*
4.D\ 4.c	([4f#X/	4.en\	.
.	16f#/LL]	.	.
.	16g/	.	.
8ryy	16f#/	8r	.
!	!LO:N:acc=n#	!	!
.	16a#X/JJ)	.	.
*	*v	*v	*
=53||	=53||	=53||
*k[f#]	*k[f#]	*
!	!LO:TX:a:i:t=a tempo	!
4.GG:\ 4.D: 4.B:	8d':/L 8g: 8dd:	p
!	!LO:TUP:b	!
.	24e:/L	.
.	24g:/	.
.	24b:/JJ	.
.	[4d^>:/	.
8GG:\ 8D: 8B:	.	.
=54	=54	=54
4.GG:\ 4.D: 4.B:	8d':/L] 8g: 8dd:	.
!	!LO:TUP:b	!
.	24e/L	.
.	24g/	.
.	24b/JJ	.
.	[4d^>/	.
8GG:\ 8D: 8B:	.	.
=55	=55	=55
8GG'/ 8D	8.d'\L] 8.f# 8.cc 8.dd	.
(4D^\ 4d	.	.
.	16f#'\Jk 16ff#	.
.	8a'\L 8aa	.
8D\)	8cc'\J 8ccc	.
=56	=56	=56
8GG'/ 8D	(8b:\ 8dd: 8gg: 8bb:	.
(4D^\ 4B 4d	4g^:\) 4b: 4dd: 4gg:	.
8D\)	8r	.
!!LO:LB:g=original
=57	=57	=57
4.GG:\ 4.D: 4.B:	8d':/L 8g: 8dd:	.
!	!LO:TUP:b	!
.	24e/L	.
.	24g/	.
.	24b/JJ	.
.	[4d^>/	.
8GG:\ 8D: 8B:	.	.
=58	=58	=58
4.GG:\ 4.D: 4.B:	8d':/L] 8g: 8dd:	.
!	!LO:TUP:b	!
.	24e/L	.
.	24g/	.
.	24b/JJ	.
.	[4d^>/	.
8GG:\ 8D: 8B:	.	.
=59	=59	=59
8GG'/ 8D	8.d'\L] 8.f# 8.cc 8.dd	.
(4D^\ 4d	.	.
.	16f#'\Jk 16ff#	.
.	8a'\L 8aa	.
8D\)	(8b'\J 8bb	.
=60	=60	=60
8GG:\ 8D: 8B:	8g:\) 8b: 8dd: 8gg:	.
(4D^\ 4B 4d	4g^\ 4gg	.
8D\)	8r	.
=61	=61	=61
8AAA'/ 8AA	8c#X/L	mf
4G^\ 4B	24e/L	<
.	24g/	.
.	24b/JJ	.
.	[4e^>/	.
8G\ 8B	.	.
=62	=62	=62
8A'\ 8c#X	8e'/L]	.
4A^\ 4c#	24g/L	.
.	24b/	.
.	24ee/JJ	.
.	[4g^>/	.
8A\ 8c#	.	.
!!LO:LB:g=original
=63	=63	=63
8B'\ 8d	8g'\L]	.
!	!LO:TUP:a	!
4B^\ 4d	24dd\L	.
.	24gg\	.
.	24g\JJ	.
.	4dd^\	.
8B\ 8d	.	.
=64	=64	=64
8AAA/ 8AA	8r	f
*clefG2	*	*
4A^>/ 4g	(16cc#X\LL 16ee#X	.
.	16a\JJ)	.
.	8cc#'\L 8ee#	.
8A'/ 8g	8cc#'\J 8ee#	.
*clefF4	*	*
=65	=65	=65
8DDD'/ 8DD	8f#'\L 8ccn 8een 8ff#	p
*clefG2	*	*
!	!LO:TUP:a	!
4cn^>/ 4e	24a\L	<
.	24cc\	.
.	24ee\JJ	.
.	[4a^>/	<
8c/ 8e	.	.
=66	=66	=66
8d'/ 8f#	8a'\L]	.
!	!LO:TUP:a	!
4d^>/ 4f#	24cc\L	.
.	24ee\	.
.	24aa\JJ	.
.	[4cc\	.
8d/ 8f#	.	.
=67	=67	=67
8e'/ 8g	8cc'\L]	.
!	!LO:TUP:a	!
4e^>/ 4g	24gg\L	.
.	24ccc\	.
.	24cc\JJ	[
.	4gg\	mf
8e/ 8g	.	.
*clefF4	*	*
=68	=68	=68
8DD'/L 8D	8r	p
*clefG2	*	*
!	!	!LO:HP:t=e dim.
(8cc/	(16eee\LL	>
.	16ee\J	.
8d/	8eee\)	.
8g#X/J)	8dd'\J 8ee#X 8bb	.
!!LO:LB:g=original
=69	=69	=69
8d'\L 8a	8dd'\L 8ff# 8ccc	.
*clefF4	*	*
(8c\	(16een\L	.
.	16en\J	.
8D\	8ee\)	.
8G#X\J)	8d'\J 8e#X 8b	.
=70	=70	=70
8D'/L 8A	8d'\L 8f# 8cc	.
*	*clefF4	*
(8C/	(16en\L	.
.	16En\J	.
8DD/	8e\)	.
8GG#X/J)	8D'\J 8E#X 8B	.
=71	=71	=71
8DD'/ 8AA	8D'\ 8F# 8c	.
8r	8r	.
!	!LO:TX:b:i:t=rit.	!
(8qC#X/	.	.
*	*clefG2	*
.	(8qc#X/	.
8D'\)	8d'/)	.
8r	8r	.
=72	=72	=72
(8qc#X/	(8qcc#X/	.
8d'\)	8dd'\)	.
8r	8r	.
(8qC#X/	(8qc#X/	.
8D'\)	[4d;/)	.
8r;	.	.
=73	=73	=73
!	!LO:TX:b:i:t=a tempo	!
4.GG:\ 4.D: 4.B:	8d':/L] 8g: 8dd:	.
.	24e/L	.
.	24g/	.
.	24b/JJ	.
.	4d^>/	.
8GG:\ 8D: 8B:	.	.
=74	=74	=74
4.GG:\ 4.D: 4.B:	8dd':\L 8gg: 8ddd:	.
!	!LO:TUP:a	!
.	24e\L	.
.	24g\	.
.	24b\JJ	.
!	!	!LO:HP:t=dimi-nuen-do:ext+ud
.	[4d/	>
8GG:\ 8D: 8B:	.	.
!!LO:LB:g=original
=75	=75	=75
8GG'/ 8D	8.d':\L] 8.f#: 8.cc: 8.dd:	.
(4D^\ 4d	.	.
.	16f#'\Jk 16ff#	.
.	8a'\L 8aa	.
8D\)	8cc'\J 8ccc	.
=76	=76	=76
8GG'/ 8D	(8b:\ 8dd: 8gg: 8bb:	.
(4D^\ 4B 4d	4g^:\) 4b: 4dd: 4gg:	.
8D\)	8r	.
=77	=77	=77
!	!LO:TX:b:i:t=e ritard. al Fine.	!
4.GG:\ 4.D: 4.B:	8d':/L 8g: 8dd:	.
!	!LO:TUP:b	!
.	24e/L	.
.	24g/	.
.	24b/JJ	.
.	[4d^>/	.
8GG:\ 8D: 8B:	.	.
=78	=78	=78
4.GG:\ 4.D: 4.B:	8d':/L] 8g: 8dd:	.
!	!LO:TUP:b	!
.	24e/L	.
.	24g/	.
.	24b/JJ	.
.	[4d^>/	.
8GG:\ 8D: 8B:	.	.
=79	=79	=79
8GG'/ 8D	8.d':\L] 8.f#: 8.cc: 8.dd:	.
(4D^\ 4d	.	.
.	16f#'\Jk 16ff#	.
.	8a'\L 8aa	.
8D\)	(8b\J 8bb	.
=80	=80	=80
4GG:\ 4D: 4B:	(4g\) 4b 4dd 4gg	.
*clefG2	*	*
*	*8va	*
8gg'\ 8ddd	8ggg'\) 8bbb 8gggg	ppp
*	*X8va	*
8r	8r	.
==	==	==
*-	*-	*-
!!!system-decoration: {(s1,s2)}
!!!RDF**kern: < = below
!!!RDF**kern: > = above
!!!ENC: Anastazja Marusiak
!!!END: 2022-12-04
!!!ENC: Marta Chmielewska
!!!END: 2023-07-17
!!!YEC: Copyright 2022 Narodowy Instytut Fryderyka Chopina (https://polishscores.org)
!!!YEM: License CC-BY-4.0 (https://creativecommons.org/licenses/by/4.0)
